X:337
T: Der lustige Sptter (76), S. 212f
N: T0226
O: Luxemburg
S: Singendes Volk, Esch-Alzette 1937 posth.]
N: Straen, fff Witry, 14.2.1933
R: Liebeslieder]
M: 2/4
L: 1/8
K: F
C | FFFG | AFF
A | c2E2 | F2z
C | FFFG | AFF
A | c2E2 | F2z
A | AABA | Add2
f2ed | c2z
A | AAAA | Acc2
FBAG | F2z

